X:1
T:Title
%%score { 1 | ( 2 3 ) }
L:1/8
Q:1/4=69
M:6/8
K:Eb
V:1 treble nm="Grand Piano"
V:2 bass 
V:3 bass 
V:1
 E>EE EEG | [GB]2 [Ac] [GB]3 | E>EE E2 G | [EG]2 [DF] [DF]3 | E>EE E>GG | [GB]2 [Ac] [GB]3 | %6
w: W.~S.~Nickle * * * * *||||||
 [B,E]2 [B,E] [EG]2 [B,F] | [B,E]6 | [GB]2 [GB] [Ge]2 [Ac] | [GB]6 | E2 E G2 F | [DF]6 | %12
w: ||||||
 E>EE E>GG | [GB]2 [Ac] [GB]3 | [B,E]2 [B,E] [EG]2 F | E6 |] %16
w: ||||
V:2
 [E,G,B,]>[E,G,B,][E,G,B,] B,B,[E,B,E] | [E,E]2 [E,E] [E,E]3 | %2
 [E,G,B,]>[E,G,B,][E,G,B,] [G,B,]2 [E,B,E] | [B,,B,]2 [B,,B,] [B,,B,]3 | %4
 [E,G,B,]>[E,G,B,][E,G,B,] [E,G,B,]>[E,B,E][E,B,E] | [E,E]2 [E,E] [E,E]3 | %6
 [E,G,]2 [E,G,] [B,,B,]2 [B,,A,] | [E,G,]6 | [E,E]2 [E,E] [E,B,]2 [E,E] | [E,E]6 | %10
 [E,G,B,]2 [E,G,B,] [E,B,E]2 [F,=A,E] | [B,,B,]6 | %12
 [E,G,B,]>[E,G,B,][E,G,B,] [E,G,B,]>[E,B,E][E,B,E] | [E,E]2 [E,E] [E,E]3 | %14
 [E,G,]2 [E,G,] [B,,B,]2 [B,,A,B,] | [E,G,B,]6 |] %16
V:3
 z3 .[E,G,]3 | x6 | x6 | x6 | x6 | x6 | x6 | x6 | x6 | x6 | x6 | x6 | x6 | x6 | x6 | x6 |] %16

